X:22
T:Croughly - a strathspey
R:strathspey
C:William Marshall
S:1822 Collection p54
B:Athole
Z:Paul Stewart Cranford (P.S.C.), <http://www.cranfordpub.com>
M:C
L:1/8
Q:266
K:DAeo
c|A<dd>e f2 df|e>dc<g a/g/f/e/ c>e|A<dd>e f2 df|e>c a/g/f/e/ d2 d:|
||E|F>GA>B c<FA<F|E>FG>c G/F/E/D/ C>E|F>GAB cFAg|f>d f/e/d/^c/ d2 DE|
F>GA>B c<FA<F|E>FG>c G/F/E/D/ CE|F<AG<B A<fe<g|f>d f/e/d/^c/ d2d|]
